X: 1
T: Michael Cramer's
M: 4/4
L: 1/8
R: reel
K: Dmaj
A3B AF~F2|AFAd f3g|afef dB~B2|dBAF FEDF|
A3B AF~F2|AFAd f3g|afef dB~B2|1 Adfe d3B:|2 Adfe d3e||
|:fded BAFA|dcdf a3f|g2fg edBc|dBAF FEDF|
A3B AF~F2|AFAd f3g|afef dB~B2|1 Adfe d3e:|2 Adfe d3B||
